Newaita-dark/apps/16/com.github.bcedu.museic.svg

<svg height="16pt" viewBox="0 0 16 16" width="16pt" xmlns="http://www.w3.org/2000/svg" xmlns:xlink="http://www.w3.org/1999/xlink"><linearGradient id="a"><stop offset="0" stop-opacity=".313725"/><stop offset=".222222" stop-opacity=".27451"/><stop offset="1" stop-opacity="0"/></linearGradient><radialGradient id="b" cx="450.90894" cy="189.57936" gradientTransform="matrix(.00000008 -.0546928 -.0632873 -.00000007 16.612047 38.909961)" gradientUnits="userSpaceOnUse" r="21.166656" xlink:href="#a"/><radialGradient id="c" cx="450.90894" cy="189.57936" gradientTransform="matrix(-.00000008 .0546928 .0632873 .00000007 -7.681507 -10.876036)" gradientUnits="userSpaceOnUse" r="21.166656" xlink:href="#a"/><radialGradient id="d" cx="450.90894" cy="189.57936" gradientTransform="matrix(-.00000008 -.0546928 .0632873 -.00000007 -7.681507 38.909961)" gradientUnits="userSpaceOnUse" r="21.166656" xlink:href="#a"/><radialGradient id="e" cx="450.90894" cy="189.57936" gradientTransform="matrix(.00000008 .0546928 -.0632873 .00000007 16.612047 -10.876037)" gradientUnits="userSpaceOnUse" r="21.166656" xlink:href="#a"/><linearGradient id="f" gradientTransform="matrix(.00171772 0 0 .0437542 4.026695 3.800358)" gradientUnits="userSpaceOnUse" x1="255.32306" x2="255.32304" y1="233.5" y2="254.66666"><stop offset="0" stop-opacity=".27451"/><stop offset="1" stop-opacity="0"/></linearGradient><linearGradient id="g" gradientUnits="userSpaceOnUse" x1="7.93822007229" x2="7.93822007229" y1="14.01690715666" y2="1.4480229161"><stop offset="0" stop-color="#424242"/><stop offset="1" stop-color="#616161"/></linearGradient><path d="m4.761719 14.015625h1.191406v-.925781h-1.191406zm0 0" fill="url(#b)"/><path d="m4.167969 14.015625h-1.191407v.925781h1.191407zm0 0" fill="url(#c)"/><path d="m4.167969 14.015625h-1.191407v-.925781h1.191407zm0 0" fill="url(#d)"/><path d="m4.761719 14.015625h1.191406v.925781h-1.191406zm0 0" fill="url(#e)"/><path d="m4.167969 13.785156h.59375v1.15625h-.59375zm0 0" fill="url(#f)"/><path d="m5.953125 1.449219c-.433594 0-.78125.40625-.78125.910156v7.808594c-.246094-.070313-.507813-.109375-.785156-.109375-1.300781 0-2.347657.871094-2.347657 1.953125 0 1.085937 1.046876 1.957031 2.347657 1.957031s2.347656-.871094 2.347656-1.957031v-8.605469c0-.21875.175781-.394531.394531-.394531h3.910156c.21875 0 .394532.175781.394532.394531v4.414062c-.246094-.070312-.507813-.109374-.785156-.109374-1.300782 0-2.347657.871093-2.347657 1.953124 0 1.085938 1.046875 1.957032 2.347657 1.957032 1.300781 0 2.347656-.871094 2.347656-1.957032v-7.304687c0-.503906-.347656-.910156-.78125-.910156zm0 0" fill="url(#g)"/><path d="m5.953125 1.449219c-.433594 0-.78125.40625-.78125.910156v.164063c0-.503907.347656-.910157.78125-.910157h6.261719c.433594 0 .78125.40625.78125.910157v-.164063c0-.503906-.347656-.910156-.78125-.910156zm4.695313 6.261719c-1.300782 0-2.347657.871093-2.347657 1.953124 0 .027344 0 .054688.003907.082032.050781-1.042969 1.078124-1.871094 2.34375-1.871094.277343 0 .539062.039062.785156.109375v-.164063c-.246094-.070312-.507813-.109374-.785156-.109374zm-6.261719 2.347656c-1.300781 0-2.347657.871094-2.347657 1.953125 0 .03125.003907.058593.003907.085937.050781-1.046875 1.078125-1.875 2.34375-1.875.277343 0 .539062.039063.785156.109375v-.164062c-.246094-.070313-.507813-.109375-.785156-.109375zm0 0" fill="#fff" fill-opacity=".313725"/><path d="m7.128906 2.761719c-.21875 0-.394531.171875-.394531.390625v.253906c0-.21875.175781-.394531.394531-.394531h3.910156c.21875 0 .394532.175781.394532.394531v-.253906c0-.21875-.175782-.390625-.394532-.390625zm5.867188 6.652343c0 1.082032-1.046875 1.957032-2.347656 1.957032-1.25 0-2.265626-.808594-2.34375-1.832032 0 .042969-.003907.085938-.003907.125 0 1.085938 1.046875 1.957032 2.347657 1.957032 1.300781 0 2.347656-.871094 2.347656-1.957032zm-6.261719 2.347657c0 1.082031-1.046875 1.957031-2.347656 1.957031-1.25 0-2.261719-.808594-2.339844-1.832031-.003906.042969-.007813.085937-.007813.125 0 1.085937 1.046876 1.957031 2.347657 1.957031s2.347656-.871094 2.347656-1.957031zm0 0" fill-opacity=".235294"/><path d="m190.48181-168.629428c-13.873675 0-24.997613 12.998759-24.997613 29.122219v249.85114c-7.874248-2.249785-16.248448-3.499666-25.122601-3.499666-41.621025 0-75.117826 27.872339-75.117826 62.494033 0 34.746681 33.496801 62.61902 75.117826 62.61902 41.621026 0 75.117827-27.872339 75.117827-62.61902v-275.348706c0-6.999332 5.624463-12.623794 12.623794-12.623794h125.113053c6.999331 0 12.623794 5.624462 12.623794 12.623794v141.236513c-7.874248-2.249786-16.248448-3.499666-25.122601-3.499666-41.621025 0-75.117826 27.872338-75.117826 62.494032 0 34.746682 33.496801 62.61902 75.117826 62.61902s75.117827-27.872338 75.117827-62.61902v-233.72768c0-16.12346-11.123938-29.122219-24.997613-29.122219zm0 0" fill="none" stroke="#212121" stroke-linecap="round" stroke-width="3" transform="matrix(.031253 0 0 .031253 0 6.719392)"/></svg>

<?xml version="1.0" encoding="UTF-8"?>
<svg xmlns="http://www.w3.org/2000/svg" xmlns:xlink="http://www.w3.org/1999/xlink" width="16pt" height="16pt" viewBox="0 0 16 16" version="1.1">
<defs>
<radialGradient id="radial0" gradientUnits="userSpaceOnUse" cx="450.90894" cy="189.57936" fx="450.90894" fy="189.57936" r="21.166656" gradientTransform="matrix(0.0000000783767,-0.0546928,-0.0632873,-0.000000071077,16.612047,38.909961)">
<stop offset="0" style="stop-color:rgb(0%,0%,0%);stop-opacity:0.313725;"/>
<stop offset="0.222222" style="stop-color:rgb(0%,0%,0%);stop-opacity:0.27451;"/>
<stop offset="1" style="stop-color:rgb(0%,0%,0%);stop-opacity:0;"/>
</radialGradient>
<radialGradient id="radial1" gradientUnits="userSpaceOnUse" cx="450.90894" cy="189.57936" fx="450.90894" fy="189.57936" r="21.166656" gradientTransform="matrix(-0.0000000783767,0.0546928,0.0632873,0.000000071077,-7.681507,-10.876036)">
<stop offset="0" style="stop-color:rgb(0%,0%,0%);stop-opacity:0.313725;"/>
<stop offset="0.222222" style="stop-color:rgb(0%,0%,0%);stop-opacity:0.27451;"/>
<stop offset="1" style="stop-color:rgb(0%,0%,0%);stop-opacity:0;"/>
</radialGradient>
<radialGradient id="radial2" gradientUnits="userSpaceOnUse" cx="450.90894" cy="189.57936" fx="450.90894" fy="189.57936" r="21.166656" gradientTransform="matrix(-0.0000000783767,-0.0546928,0.0632873,-0.000000071077,-7.681507,38.909961)">
<stop offset="0" style="stop-color:rgb(0%,0%,0%);stop-opacity:0.313725;"/>
<stop offset="0.222222" style="stop-color:rgb(0%,0%,0%);stop-opacity:0.27451;"/>
<stop offset="1" style="stop-color:rgb(0%,0%,0%);stop-opacity:0;"/>
</radialGradient>
<radialGradient id="radial3" gradientUnits="userSpaceOnUse" cx="450.90894" cy="189.57936" fx="450.90894" fy="189.57936" r="21.166656" gradientTransform="matrix(0.0000000783767,0.0546928,-0.0632873,0.000000071077,16.612047,-10.876037)">
<stop offset="0" style="stop-color:rgb(0%,0%,0%);stop-opacity:0.313725;"/>
<stop offset="0.222222" style="stop-color:rgb(0%,0%,0%);stop-opacity:0.27451;"/>
<stop offset="1" style="stop-color:rgb(0%,0%,0%);stop-opacity:0;"/>
</radialGradient>
<linearGradient id="linear0" gradientUnits="userSpaceOnUse" x1="255.32306" y1="233.5" x2="255.32304" y2="254.66666" gradientTransform="matrix(0.00171772,0,0,0.0437542,4.026695,3.800358)">
<stop offset="0" style="stop-color:rgb(0%,0%,0%);stop-opacity:0.27451;"/>
<stop offset="1" style="stop-color:rgb(0%,0%,0%);stop-opacity:0;"/>
</linearGradient>
<linearGradient id="linear1" gradientUnits="userSpaceOnUse" x1="981.43005" y1="1457.5077" x2="981.43005" y2="815.11719" gradientTransform="matrix(0.0195658,0,0,0.0195658,-11.264244,-14.500397)">
<stop offset="0" style="stop-color:rgb(25.882353%,25.882353%,25.882353%);stop-opacity:1;"/>
<stop offset="1" style="stop-color:rgb(38.039216%,38.039216%,38.039216%);stop-opacity:1;"/>
</linearGradient>
</defs>
<g id="surface1">
<path style=" stroke:none;fill-rule:nonzero;fill:url(#radial0);" d="M 4.761719 14.015625 L 5.953125 14.015625 L 5.953125 13.089844 L 4.761719 13.089844 Z M 4.761719 14.015625 "/>
<path style=" stroke:none;fill-rule:nonzero;fill:url(#radial1);" d="M 4.167969 14.015625 L 2.976562 14.015625 L 2.976562 14.941406 L 4.167969 14.941406 Z M 4.167969 14.015625 "/>
<path style=" stroke:none;fill-rule:nonzero;fill:url(#radial2);" d="M 4.167969 14.015625 L 2.976562 14.015625 L 2.976562 13.089844 L 4.167969 13.089844 Z M 4.167969 14.015625 "/>
<path style=" stroke:none;fill-rule:nonzero;fill:url(#radial3);" d="M 4.761719 14.015625 L 5.953125 14.015625 L 5.953125 14.941406 L 4.761719 14.941406 Z M 4.761719 14.015625 "/>
<path style=" stroke:none;fill-rule:nonzero;fill:url(#linear0);" d="M 4.167969 13.785156 L 4.761719 13.785156 L 4.761719 14.941406 L 4.167969 14.941406 Z M 4.167969 13.785156 "/>
<path style=" stroke:none;fill-rule:nonzero;fill:url(#linear1);" d="M 5.953125 1.449219 C 5.519531 1.449219 5.171875 1.855469 5.171875 2.359375 L 5.171875 10.167969 C 4.925781 10.097656 4.664062 10.058594 4.386719 10.058594 C 3.085938 10.058594 2.039062 10.929688 2.039062 12.011719 C 2.039062 13.097656 3.085938 13.96875 4.386719 13.96875 C 5.6875 13.96875 6.734375 13.097656 6.734375 12.011719 L 6.734375 3.40625 C 6.734375 3.1875 6.910156 3.011719 7.128906 3.011719 L 11.039062 3.011719 C 11.257812 3.011719 11.433594 3.1875 11.433594 3.40625 L 11.433594 7.820312 C 11.1875 7.75 10.925781 7.710938 10.648438 7.710938 C 9.347656 7.710938 8.300781 8.582031 8.300781 9.664062 C 8.300781 10.75 9.347656 11.621094 10.648438 11.621094 C 11.949219 11.621094 12.996094 10.75 12.996094 9.664062 L 12.996094 2.359375 C 12.996094 1.855469 12.648438 1.449219 12.214844 1.449219 Z M 5.953125 1.449219 "/>
<path style=" stroke:none;fill-rule:nonzero;fill:rgb(100%,100%,100%);fill-opacity:0.313725;" d="M 5.953125 1.449219 C 5.519531 1.449219 5.171875 1.855469 5.171875 2.359375 L 5.171875 2.523438 C 5.171875 2.019531 5.519531 1.613281 5.953125 1.613281 L 12.214844 1.613281 C 12.648438 1.613281 12.996094 2.019531 12.996094 2.523438 L 12.996094 2.359375 C 12.996094 1.855469 12.648438 1.449219 12.214844 1.449219 Z M 10.648438 7.710938 C 9.347656 7.710938 8.300781 8.582031 8.300781 9.664062 C 8.300781 9.691406 8.300781 9.71875 8.304688 9.746094 C 8.355469 8.703125 9.382812 7.875 10.648438 7.875 C 10.925781 7.875 11.1875 7.914062 11.433594 7.984375 L 11.433594 7.820312 C 11.1875 7.75 10.925781 7.710938 10.648438 7.710938 Z M 4.386719 10.058594 C 3.085938 10.058594 2.039062 10.929688 2.039062 12.011719 C 2.039062 12.042969 2.042969 12.070312 2.042969 12.097656 C 2.09375 11.050781 3.121094 10.222656 4.386719 10.222656 C 4.664062 10.222656 4.925781 10.261719 5.171875 10.332031 L 5.171875 10.167969 C 4.925781 10.097656 4.664062 10.058594 4.386719 10.058594 Z M 4.386719 10.058594 "/>
<path style=" stroke:none;fill-rule:nonzero;fill:rgb(0%,0%,0%);fill-opacity:0.235294;" d="M 7.128906 2.761719 C 6.910156 2.761719 6.734375 2.933594 6.734375 3.152344 L 6.734375 3.40625 C 6.734375 3.1875 6.910156 3.011719 7.128906 3.011719 L 11.039062 3.011719 C 11.257812 3.011719 11.433594 3.1875 11.433594 3.40625 L 11.433594 3.152344 C 11.433594 2.933594 11.257812 2.761719 11.039062 2.761719 Z M 12.996094 9.414062 C 12.996094 10.496094 11.949219 11.371094 10.648438 11.371094 C 9.398438 11.371094 8.382812 10.5625 8.304688 9.539062 C 8.304688 9.582031 8.300781 9.625 8.300781 9.664062 C 8.300781 10.75 9.347656 11.621094 10.648438 11.621094 C 11.949219 11.621094 12.996094 10.75 12.996094 9.664062 Z M 6.734375 11.761719 C 6.734375 12.84375 5.6875 13.71875 4.386719 13.71875 C 3.136719 13.71875 2.125 12.910156 2.046875 11.886719 C 2.042969 11.929688 2.039062 11.972656 2.039062 12.011719 C 2.039062 13.097656 3.085938 13.96875 4.386719 13.96875 C 5.6875 13.96875 6.734375 13.097656 6.734375 12.011719 Z M 6.734375 11.761719 "/>
<path style="fill:none;stroke-width:3;stroke-linecap:round;stroke-linejoin:miter;stroke:rgb(12.941176%,12.941176%,12.941176%);stroke-opacity:1;stroke-miterlimit:4;" d="M 190.48181 -168.629428 C 176.608135 -168.629428 165.484197 -155.630669 165.484197 -139.507209 L 165.484197 110.343931 C 157.609949 108.094146 149.235749 106.844265 140.361596 106.844265 C 98.740571 106.844265 65.24377 134.716604 65.24377 169.338298 C 65.24377 204.084979 98.740571 231.957318 140.361596 231.957318 C 181.982622 231.957318 215.479423 204.084979 215.479423 169.338298 L 215.479423 -106.010408 C 215.479423 -113.00974 221.103886 -118.634202 228.103217 -118.634202 L 353.21627 -118.634202 C 360.215601 -118.634202 365.840064 -113.00974 365.840064 -106.010408 L 365.840064 35.226105 C 357.965816 32.976319 349.591616 31.726439 340.717463 31.726439 C 299.096438 31.726439 265.599637 59.598777 265.599637 94.220471 C 265.599637 128.967153 299.096438 156.839491 340.717463 156.839491 C 382.338488 156.839491 415.83529 128.967153 415.83529 94.220471 L 415.83529 -139.507209 C 415.83529 -155.630669 404.711352 -168.629428 390.837677 -168.629428 Z M 190.48181 -168.629428 " transform="matrix(0.031253,0,0,0.031253,0,6.719392)"/>
</g>
</svg>
